X:1
T:D Major Oliver Holden, 1796
T:Isaac Watts, 1719 (Psalm 126) 86. 86. (C. M.)
T:Transition No copyright. Transcribed from The Union Harmony, 1796.
%%score [ 1 2 3 4 ]
L:1/8
M:3/2
K:D
V:1 treble nm="Treble" snm="Tr."
V:2 treble nm="Counter" snm="C."
V:3 treble-8 nm="Tenor" snm="T."
V:4 bass nm="Bass" snm="B."
V:1
 A4 A4 d4 | d4 c4 e4 | d8 c4 | d8 d4 | (B4 c4) (d2 c2) | (B4 c2 B2) ^A4 | B8 z4 ||[M:4/4] z8 | %8
w: ||||||||
 z4 D4 | A2 A2 F2 A2 | c2 e2 c2 A2 | c2 e2 c2 d2 | d2 d2 d2 e2 | A2 A2 A2 c2 | d2 A2 B2 A2 | A8 |] %16
w: My|rap- ture seemed a|plea- sing dream, a|plea- sing dream, *|||||
V:2
 D4 D4 F4 | A8 G4 | (E4 F4) E4 | F8 G4 | (G4 F4) F4 | (F4 E2 F2) F4 | F8 z4 ||[M:4/4] z8 | z8 | %9
w: 1.~When God re-|vealed His|gra- * cious|name, And|changed * my|mourn- * * ful|state,|||
 z4 F4 | A2 A2 A2 A2 | A2 A2 A2 F2 | G2 G2 G2 E2 | F2 F2 F2 E2 | D2 A2 A2 G2 | F8 |] %16
w: My|rap- ture seemed a|plea- sing dream, My|rap- ture seemed a|plea- sing dream, the|grace ap- peared so|great.|
V:3
 D4 F4 A2 F2 | F4 E4 G4 | (G4 F4) E4 | F8 B4 | (B4 ^A4) (B2 c2) | (d4 e2 d2) (c3 B) | B8 z4 || %7
w: |||||||
[M:4/4] z4 D4 | A2 A2 F2 A2 | d2 e2 f2 d2 | e2 c2 A2 d2 | e2 c2 A2 A2 | B2 B2 B2 c2 | d2 d2 d2 e2 | %14
w: My|rap- ture seemed a|plea- sing dream, My|rap- ture seemed a|plea- sing dream, *|||
 f2 d2 e2 c2 | d8 |] %16
w: ||
V:4
 D,4 D,4 D,4 | A,,8 A,,4 | D,8 A,,4 | D,8 G,4 | (G,4 F,4) F,4 | (B,4 ^A,2 B,2) F,4 | B,,8 D,4 || %7
w: ||||||* My|
[M:4/4] A,2 A,2 F,2 D,2 | F,2 A,2 F,2 D,2 | F,2 A,2 F,2 D,2 | A,8- | A,6 D,2 | G,2 G,2 G,2 A,2 | %13
w: rap- ture seemed a|plea- sing dream, the|grace ap- peared so|great,~|_ _||
 F,2 D,2 F,2 A,2 | C2 F,2 A,2 A,2 | D,8 |] %16
w: |||

